svg/fluentui-system-icons/ic_fluent_share_screen_person_24_filled.svg

<svg width="24" height="24" viewBox="0 0 24 24" fill="none" xmlns="http://www.w3.org/2000/svg">
<path d="M5.25 4C3.45507 4 2 5.45507 2 7.25V16.75C2 18.5449 3.45508 20 5.25 20H13.002C13.0007 19.9583 13 19.9167 13 19.875V19.772C13 18.2401 14.2419 17 15.7727 17H16.0505C15.4022 16.3647 15 15.4793 15 14.5C15 12.567 16.567 11 18.5 11C20.433 11 22 12.567 22 14.5V7.25C22 5.45507 20.5449 4 18.75 4H5.25ZM21 14.5C21 15.8807 19.8807 17 18.5 17C17.1193 17 16 15.8807 16 14.5C16 13.1193 17.1193 12 18.5 12C19.8807 12 21 13.1193 21 14.5ZM23 19.875C23 21.4315 21.7143 23 18.5 23C15.2857 23 14 21.4374 14 19.875V19.772C14 18.7929 14.7937 18 15.7727 18H21.2273C22.2063 18 23 18.793 23 19.772V19.875Z" fill="#212121"/>
</svg>

<svg xmlns="http://www.w3.org/2000/svg" width="24" height="24"><path d="M5.25 4A3.25 3.25 0 0 0 2 7.25v9.5A3.25 3.25 0 0 0 5.25 20h7.752a4.008 4.008 0 0 1-.002-.125v-.103A2.772 2.772 0 0 1 15.773 17h.277A3.5 3.5 0 1 1 22 14.5V7.25A3.25 3.25 0 0 0 18.75 4H5.25ZM21 14.5a2.5 2.5 0 1 1-5 0 2.5 2.5 0 0 1 5 0Zm2 5.375C23 21.431 21.714 23 18.5 23S14 21.437 14 19.875v-.103c0-.98.794-1.772 1.773-1.772h5.454c.98 0 1.773.793 1.773 1.772v.103Z"/></svg>
